epam-assets/icon-sources/18/internal-logo/skillo.svg

<svg width="18" height="18" viewBox="0 0 18 18" fill="none" xmlns="http://www.w3.org/2000/svg">
<g id="18/internal-logo/skillo">
<path id="icon" fill-rule="evenodd" clip-rule="evenodd" d="M9.7721 1.51038L9.71203 1.50126C9.5128 1.48568 9.32785 1.61565 9.28322 1.81312C9.23412 2.03034 9.3734 2.24698 9.5943 2.297L10.7331 2.55465L5.27633 5.64439L5.1674 5.70862C3.55744 6.69662 3.02948 8.77745 3.99511 10.4177C4.9822 12.0944 7.1562 12.6757 8.85088 11.7162L10.9752 10.5134L11.0284 10.4791C11.2473 10.3191 11.3134 10.0185 11.1723 9.77902C11.0205 9.52107 10.686 9.43163 10.4253 9.57925L8.30095 10.7821L8.1996 10.8364C7.04238 11.4227 5.6031 11.0107 4.93926 9.8831C4.25589 8.72232 4.65302 7.24281 5.82626 6.57851L11.2819 3.48889L10.9412 4.58494L10.9277 4.64315C10.8979 4.83745 11.0163 5.03025 11.213 5.09106C11.4294 5.15796 11.6585 5.03981 11.7248 4.82718L12.4402 2.52798L12.4443 2.50687L12.4497 2.45416V2.42409L12.4459 2.38354L12.4335 2.32685L12.414 2.27484L12.3859 2.22316L12.354 2.17993L12.3118 2.13691L12.2681 2.10332L12.2287 2.08007C12.2071 2.06889 12.1842 2.05945 12.1601 2.052L12.1382 2.04586L9.7721 1.51038ZM14.0048 8.17525C13.0177 6.49856 10.8437 5.91721 9.14901 6.87675L7.02466 8.07956L6.97146 8.11387C6.75256 8.27379 6.68654 8.57439 6.82755 8.81391C6.97941 9.07187 7.31387 9.16131 7.57459 9.01368L9.69894 7.81087L9.80029 7.75653C10.9575 7.17019 12.3968 7.58222 13.0606 8.70983C13.744 9.87061 13.3469 11.3501 12.1736 12.0144L8.53464 14.0746C8.10976 13.7654 7.52429 13.7128 7.04042 13.9868C6.38862 14.3558 6.16799 15.1778 6.54764 15.8226C6.92729 16.4675 7.76345 16.6911 8.41525 16.3221C8.89912 16.0481 9.14537 15.5245 9.08482 15.0091L12.7236 12.9485L12.8325 12.8843C14.4425 11.8963 14.9704 9.81548 14.0048 8.17525Z" fill="#6C6F80"/>
</g>
</svg>

<svg xmlns="http://www.w3.org/2000/svg" width="18" height="18" fill="none" viewBox="0 0 18 18">
  <path fill="#6C6F80" fill-rule="evenodd" d="m9.772 1.51-.06-.009a.405.405 0 0 0-.429.312.407.407 0 0 0 .311.484l1.14.258-5.458 3.09-.109.064a3.453 3.453 0 0 0-1.172 4.709 3.597 3.597 0 0 0 4.856 1.298l2.124-1.203.053-.034a.531.531 0 0 0 .144-.7.553.553 0 0 0-.747-.2l-2.124 1.203-.101.054a2.491 2.491 0 0 1-3.26-.953 2.39 2.39 0 0 1 .886-3.304l5.456-3.09-.34 1.096-.014.058a.407.407 0 0 0 .285.448.408.408 0 0 0 .512-.264l.715-2.299.004-.021.006-.053v-.03l-.004-.04-.012-.057-.02-.052-.028-.052-.032-.043-.042-.043-.044-.034-.04-.023a.417.417 0 0 0-.068-.028l-.022-.006-2.366-.536Zm4.233 6.665a3.597 3.597 0 0 0-4.856-1.298L7.025 8.08l-.054.034a.531.531 0 0 0-.143.7.553.553 0 0 0 .747.2L9.699 7.81l.101-.054a2.49 2.49 0 0 1 3.26.953 2.39 2.39 0 0 1-.886 3.304l-3.64 2.06a1.385 1.385 0 0 0-1.494-.087 1.328 1.328 0 0 0-.492 1.836c.38.645 1.215.868 1.867.5.484-.275.73-.799.67-1.314l3.639-2.06.108-.065a3.453 3.453 0 0 0 1.173-4.709Z" clip-rule="evenodd"/>
</svg>
